!!!id: 18xx:2766
!!!COM: Walczyński, Franciszek
!!!OTL: Praeludia organi op. 5 – Grave
!!!PDT: 1894
!!!SMS-siglum: PL-KOZmzk
!!!SMS-shelfmark: mzk/m/159
!!!NIFC-rismID: 1001116726
!!!URL-scan: https://repozytorium.nifc.pl/islandora/object/pl-kozmzk%3A2265/datastream/PDF/view
!!!ONB-nifc: UWAGA: numeracja plików zgodna z numeracją źrodłową
!!!SMS-variant:
!!!SMS-altvar:
!!!OMD:23. Grave.
**kern	**kern	**dynam
*part2	*part1	*part1
*staff2	*staff1	*
*I"[Organo]	*	*
*clefF4	*clefG2	*
*k[f#c#g#d#]	*k[f#c#g#d#]	*
*M4/4	*M4/4	*
*met(c)	*met(c)	*
=1	=1	=1
*^	*^	*
(4E/	4E\	(4e/	4e\	f
8D#/L	8D#\L	8d#/L	8d#\L	.
8C#/J	8C#\J	8c#/J	8c#\J	.
4A/	4A\	4a/	4a\	.
4G#/)	4G#\	4g#/)	4g#\	.
=2	=2	=2	=2	=2
(4c#/	4c#\	(4cc#/	4cc#\	.
8B/L	8B\L	8b/L	8b\L	.
8A/J	8A\J	8a/J	8a\J	.
4G#/	4G#\	4g#/	4g#\	.
4F#/	4F#\	4f#/	4f#\	.
=3	=3	=3	=3	=3
4E/	4E\	4e/	4e\	.
8F#/L	8F#\L	8f#/L	8f#\L	>
8G#/J	8G#\J	8g#/J	8g#\J	.
4A/)	4F#\	4c#Z/)	4c#\	]
4A#X/	4F##X\	(4d#/	[4c#\	p
=4	=4	=4	=4	=4
(4G#/	2G#\	2e/	(2.c#\]	>
8E/L	.	.	.	.
8F#/J	.	.	.	.
!LO:TX:b:i:t=Ped.	!	!	!	!
4G#/	2GG#\	2d#/	.	.
[4F#/	.	.	4B#X\	.
=5	=5	=5	=5	=5
4F#/]	2.C#\	2.c#/)	2.G#\)	]
8E/L	.	.	.	.
8D#/J	.	.	.	.
4E/)	.	.	.	.
4G#/	4r	4rc	4rcc	fp
=6	=6	=6	=6	=6
*	*	*	*	*^
!	!	!	!	!LO:DY:b=2	!LO:DY:a
4A/	4A\	4a/	4a\	fp	fp
8G#/L	8G#\L	8g#/L	8g#\L	.	.
8F#/J	8F#\J	8f#/J	8f#\J	.	.
!	!	!	!	!	!LO:DY:a
(4G#/	2E#X\	(4cc#/	2g#\	.	p
4c#/	.	[4b/	.	.	.
*	*	*	*	*v	*v
!!LO:PB:g=original
=7	=7	=7	=7	=7
4dn/	2.F#\	4b/]	2.f#\	.
8c#/L	.	8a/L	.	.
8B/J	.	8g#/J	.	.
4c#/)	.	4a/)	.	.
4B/	4r	4rc	4rcc	.
=8	=8	=8	=8	=8
4A/	4A\	4a/	4a\	fp
8G#/L	8G#\L	8g#/L	8g#\L	.
8F#/J	8F#\J	8f#/J	8f#\J	.
[2d#/	2F##X\	(4dd#/	2a#X\	p
.	.	[4cc#/	.	.
=9	=9	=9	=9	=9
1d#/]	2.G#\	4cc#/]	[1g#\	.
.	.	8b#X/L	.	.
.	.	8a#X/J	.	.
.	.	2b#/)	.	.
!	!LO:N:acc=n#	!	!	!
.	4F#\	.	.	.
=10	=10	=10	=10	=10
(2.c#/	(4E\	(4cc#/	4g#\]	.
.	4F#\	4a/	4f#\	.
.	4G#\	2g#/	4f#\	.
4B#X/	4GG#\	.	8e\L	.
.	.	.	8d#\J	.
=11	=11	=11	=11	=11
4c#/	2.C#\	2.g#^/	2.e\	.
8Bn/L	.	.	.	.
8A/J	.	.	.	.
4G#/	.	.	.	.
!LO:TX:b:i:t=Ped.	!	!	!	!
4G#/)	4E\)	4e/)	[4c#\	.
=12	=12	=12	=12	=12
(2A/	2F#\	(4d#/	2c#\]	fp <
.	.	8e/L	.	.
.	.	8f#/J	.	.
4G#/	4G#\	4.e/	2B#X\	[ >
[4F#/	4GG#\	.	.	.
.	.	8d#/	.	.
=13	=13	=13	=13	=13
4F#/]	1C#\;	1c#/;)	1G#\	] pp
8E/L	.	.	.	.
8D#/J	.	.	.	.
2E/)	.	.	.	.
*v	*v	*	*	*
*	*v	*v	*
==	==	==
*-	*-	*-
!!!system-decoration: {(s1,s2)}
!!!ENC: Krzysztof Stępień
!!!END: 2021-07-26
!!!EED: Andrzej Borzym
!!!EST: 2021-08-08
